src/standard/office/refrigerator.svg

<svg xmlns="http://www.w3.org/2000/svg" viewBox="0 0 36 36">
  <path d="M26 4.375H10A1.627 1.627 0 0 0 8.375 6v25a.625.625 0 0 0 .625.625h18a.625.625 0 0 0 .625-.625V6A1.627 1.627 0 0 0 26 4.375ZM9.625 6A.375.375 0 0 1 10 5.625h16a.375.375 0 0 1 .375.375v5.375H9.625Zm16.75 24.375H9.625v-17.75h16.75Z"/>
  <path d="M12 7.375a.625.625 0 0 0-.625.625v1a.625.625 0 0 0 1.25 0V8A.625.625 0 0 0 12 7.375Zm0 13.25a.625.625 0 0 0 .625-.625v-5a.625.625 0 0 0-1.25 0v5a.625.625 0 0 0 .625.625Z"/>
</svg>

<svg id="b9ecca62-56c4-4314-9984-4e314f6b0ab8" data-name="Layer 1" xmlns="http://www.w3.org/2000/svg" viewBox="0 0 36 36">
  <g>
    <path d="M26,4.375H10A1.627,1.627,0,0,0,8.375,6V31A.625.625,0,0,0,9,31.625H27A.625.625,0,0,0,27.625,31V6A1.627,1.627,0,0,0,26,4.375ZM9.625,6A.375.375,0,0,1,10,5.625H26A.375.375,0,0,1,26.375,6v5.375H9.625Zm16.75,24.375H9.625V12.625h16.75Z"/>
    <path d="M12,7.375A.625.625,0,0,0,11.375,8V9a.625.625,0,0,0,1.25,0V8A.625.625,0,0,0,12,7.375Z"/>
    <path d="M12,20.625A.625.625,0,0,0,12.625,20V15a.625.625,0,0,0-1.25,0v5A.625.625,0,0,0,12,20.625Z"/>
  </g>
</svg>
